X: 40083
T: Thunder Bay
R: jig
M: 6/8
K: Amajor
M:4/4
A>B|c>c (3cBA E>C A,>A,|(3A,CE D>A F2(3FBc d>d|(3dcB (3EGB g>f|(3fec (3ecA E2 A>B|
c>c (3cBA E>C A,>A,|(3A,CE D>A F2 (3FBc|d>d (3dcB (3EGB g>f|(3fec (3dBG A2 (3Acd||
e>a c>e (3AcA E>C|A,>A, (3A,B,C D3 E|(3EGB (3dcB (3BAB g>f|(3efe (3efe c2 c>d|
e>a c>e (3AcA E>C|A,>A, (3A,B,C D3 E|(3EGB (3dcB (3BAB g>f|(3efe (3efg a3||

